logos/aws-open-search.svg

<?xml version="1.0" encoding="UTF-8"?>
<svg width="256px" height="256px" viewBox="0 0 256 256" version="1.1" xmlns="http://www.w3.org/2000/svg" xmlns:xlink="http://www.w3.org/1999/xlink" preserveAspectRatio="xMidYMid">
    <title>AWS OpenSearch</title>
    <defs>
        <linearGradient x1="0%" y1="100%" x2="100%" y2="0%" id="linearGradient-1">
            <stop stop-color="#4D27A8" offset="0%"></stop>
            <stop stop-color="#A166FF" offset="100%"></stop>
        </linearGradient>
    </defs>
    <g>
            <rect fill="url(#linearGradient-1)" x="0" y="0" width="256" height="256"></rect>
            <path d="M141.632,164.256 C127.4976,164.256 116,152.7584 116,138.6272 C116,124.4928 127.4976,112.9952 141.632,112.9952 C155.7664,112.9952 167.264,124.4928 167.264,138.6272 C167.264,152.7584 155.7664,164.256 141.632,164.256 L141.632,164.256 Z M141.632,106.5952 C123.968,106.5952 109.6,120.9632 109.6,138.6272 C109.6,156.288 123.968,170.656 141.632,170.656 C159.296,170.656 173.664,156.288 173.664,138.6272 C173.664,120.9632 159.296,106.5952 141.632,106.5952 L141.632,106.5952 Z M206.5536,196.3072 C204.4704,198.6144 200.8864,198.8064 198.5664,196.7264 L171.8784,172.6528 C174.6976,170.144 177.2288,167.328 179.3568,164.2016 L206.1312,188.3232 C208.4448,190.4096 208.6304,193.9968 206.5536,196.3072 L206.5536,196.3072 Z M102.4352,138.6272 C102.4352,117.0112 120.0192,99.4272 141.632,99.4272 C163.2448,99.4272 180.8288,117.0112 180.8288,138.6272 C180.8288,160.24 163.2448,177.824 141.632,177.824 C120.0192,177.824 102.4352,160.24 102.4352,138.6272 L102.4352,138.6272 Z M182.6016,158.512 C185.536,152.4928 187.2288,145.76 187.2288,138.6272 C187.2288,113.4816 166.7744,93.0272 141.632,93.0272 C116.4896,93.0272 96.0352,113.4816 96.0352,138.6272 C96.0352,163.7696 116.4896,184.224 141.632,184.224 C150.9088,184.224 159.5392,181.424 166.7488,176.6464 L194.2848,201.4848 C196.5824,203.5488 199.4656,204.5664 202.3424,204.563215 C205.6416,204.563215 208.928,203.2256 211.3088,200.592 C215.744,195.6576 215.3472,188.0224 210.4192,183.5712 L182.6016,158.512 Z M214.4,64 L214.4,172.8 L208,172.8 L208,67.2 L182.4,67.2 L182.4,102.4 L176,102.4 L176,64 C176,62.2336 177.4336,60.8 179.2,60.8 L211.2,60.8 C212.9696,60.8 214.4,62.2336 214.4,64 L214.4,64 Z M163.2,195.2 L169.6,195.2 L169.6,211.2 C169.6,212.9696 168.1696,214.4 166.4,214.4 L134.4,214.4 C132.6304,214.4 131.2,212.9696 131.2,211.2 L131.2,192 L137.6,192 L137.6,208 L163.2,208 L163.2,195.2 Z M137.6,83.2 L131.2,83.2 L131.2,44.8 C131.2,43.0336 132.6304,41.6 134.4,41.6 L166.4,41.6 C168.1696,41.6 169.6,43.0336 169.6,44.8 L169.6,89.6 L163.2,89.6 L163.2,48 L137.6,48 L137.6,83.2 Z M118.4,188.8 L124.8,188.8 L124.8,211.2 C124.8,212.9696 123.3696,214.4 121.6,214.4 L89.6,214.4 C87.8336,214.4 86.4,212.9696 86.4,211.2 L86.4,163.2 L92.8,163.2 L92.8,208 L118.4,208 L118.4,188.8 Z M92.8,115.2 L86.4,115.2 L86.4,73.6 C86.4,71.8336 87.8336,70.4 89.6,70.4 L121.6,70.4 C123.3696,70.4 124.8,71.8336 124.8,73.6 L124.8,86.4 L118.4,86.4 L118.4,76.8 L92.8,76.8 L92.8,115.2 Z M48,208 L73.6,208 L73.6,99.2 L48,99.2 L48,208 Z M76.8,92.8 L44.8,92.8 C43.0336,92.8 41.6,94.2336 41.6,96 L41.6,211.2 C41.6,212.9696 43.0336,214.4 44.8,214.4 L76.8,214.4 C78.5696,214.4 80,212.9696 80,211.2 L80,96 C80,94.2336 78.5696,92.8 76.8,92.8 L76.8,92.8 Z" fill="#FFFFFF"></path>
    </g>
</svg>

<svg width="256" height="256" xmlns="http://www.w3.org/2000/svg" preserveAspectRatio="xMidYMid">
	<defs>
		<linearGradient x1="0%" y1="100%" x2="100%" y2="0%" id="a">
			<stop stop-color="#4D27A8" offset="0%"/>
			<stop stop-color="#A166FF" offset="100%"/>
		</linearGradient>
	</defs>
	<path fill="url(#a)" d="M0 0h256v256H0z"/>
	<path d="M141.632 164.256c-14.134 0-25.632-11.498-25.632-25.629 0-14.134 11.498-25.632 25.632-25.632 14.134 0 25.632 11.498 25.632 25.632 0 14.131-11.498 25.629-25.632 25.629Zm0-57.66c-17.664 0-32.032 14.367-32.032 32.031 0 17.661 14.368 32.029 32.032 32.029 17.664 0 32.032-14.368 32.032-32.029 0-17.664-14.368-32.032-32.032-32.032Zm64.922 89.711c-2.084 2.307-5.668 2.5-7.988.42l-26.688-24.074c2.82-2.509 5.35-5.325 7.479-8.451l26.774 24.121c2.314 2.087 2.5 5.674.423 7.984Zm-104.119-57.68c0-21.616 17.584-39.2 39.197-39.2 21.613 0 39.197 17.584 39.197 39.2 0 21.613-17.584 39.197-39.197 39.197-21.613 0-39.197-17.584-39.197-39.197Zm80.167 19.885c2.934-6.02 4.627-12.752 4.627-19.885 0-25.145-20.455-45.6-45.597-45.6-25.142 0-45.597 20.455-45.597 45.6 0 25.143 20.455 45.597 45.597 45.597 9.277 0 17.907-2.8 25.117-7.578l27.536 24.839a11.999 11.999 0 0 0 8.057 3.078c3.3 0 6.586-1.337 8.967-3.971 4.435-4.934 4.038-12.57-.89-17.02l-27.817-25.06ZM214.4 64v108.8H208V67.2h-25.6v35.2H176V64c0-1.766 1.434-3.2 3.2-3.2h32a3.2 3.2 0 0 1 3.2 3.2Zm-51.2 131.2h6.4v16c0 1.77-1.43 3.2-3.2 3.2h-32c-1.77 0-3.2-1.43-3.2-3.2V192h6.4v16h25.6v-12.8Zm-25.6-112h-6.4V44.8a3.2 3.2 0 0 1 3.2-3.2h32a3.2 3.2 0 0 1 3.2 3.2v44.8h-6.4V48h-25.6v35.2Zm-19.2 105.6h6.4v22.4c0 1.77-1.43 3.2-3.2 3.2h-32a3.2 3.2 0 0 1-3.2-3.2v-48h6.4V208h25.6v-19.2Zm-25.6-73.6h-6.4V73.6c0-1.766 1.434-3.2 3.2-3.2h32a3.2 3.2 0 0 1 3.2 3.2v12.8h-6.4v-9.6H92.8v38.4ZM48 208h25.6V99.2H48V208ZM76.8 92.8h-32a3.201 3.201 0 0 0-3.2 3.2v115.2a3.2 3.2 0 0 0 3.2 3.2h32c1.77 0 3.2-1.43 3.2-3.2V96a3.2 3.2 0 0 0-3.2-3.2Z" fill="#FFF"/>
</svg>
